X:108
T:Tabby in the Tub 
R:double jig
C: 2003, 2010 L.E. McCullough 
M:6/8
L:1/8
K:Amix
A2B|:cAA BAB|(3cBA F~A3|~f3 ecA|~B3 BAB|
cAA BAB|cAF ~A3|~f3 ecB|BAF ~A3:|
|:cee ece|faa afe|~f3 eae|fec ~B3|
cee e (3cde|faa afe|~a3 fec|BAF A3:|
<end>
<start>
